X: 18
T:Robert Hurr's Liverpool Hornpipe
R:Hornpipe
O:Robert Hurr
M:4/4
A:Southwold, Suffolk
L:1/8
Q:140
S:Ralph Vaughan Wiliams Notebook
Z:John Adams VMP
K:F
(3GAG | F2 DG F2DE | DF B2 B2 (3GAG | F2DG F2 DF | G2 C2 C2 C2 |! 
F2 DG F2 DG | DF B2 B2 c2 | d2 B2 ABcA |B6 :|!
|: Bc | d2 d4 d2 | c2 B2 cdce | d2 B2 d2 B2 | cBAG F4 |!
d2 d4 d2 | cBAB cdce | d2 B2 ABcA | B6:||
